build/images/icons/settings.svg

<svg width="32" height="32" viewBox="0 0 32 32" fill="none" xmlns="http://www.w3.org/2000/svg">
<path d="M25.5205 17.2526C25.5738 16.8525 25.6005 16.4392 25.6005 15.9992C25.6005 15.5726 25.5738 15.1459 25.5071 14.7459L28.2138 12.6392C28.4538 12.4526 28.5205 12.0926 28.3738 11.8259L25.8138 7.39922C25.6538 7.10589 25.3205 7.01255 25.0271 7.10589L21.8405 8.38588C21.1738 7.87922 20.4671 7.45255 19.6805 7.13255L19.2005 3.74589C19.1471 3.42589 18.8805 3.19922 18.5605 3.19922H13.4405C13.1205 3.19922 12.8671 3.42589 12.8138 3.74589L12.3338 7.13255C11.5471 7.45255 10.8271 7.89255 10.1738 8.38588L6.98714 7.10589C6.6938 6.99922 6.36047 7.10589 6.20047 7.39922L3.65381 11.8259C3.49381 12.1059 3.54714 12.4526 3.8138 12.6392L6.52047 14.7459C6.4538 15.1459 6.40047 15.5859 6.40047 15.9992C6.40047 16.4126 6.42714 16.8525 6.4938 17.2526L3.78714 19.3592C3.54714 19.5459 3.48047 19.9059 3.62714 20.1726L6.18714 24.5992C6.34714 24.8926 6.68047 24.9859 6.9738 24.8926L10.1605 23.6126C10.8271 24.1192 11.5338 24.5459 12.3205 24.8659L12.8005 28.2526C12.8671 28.5726 13.1205 28.7992 13.4405 28.7992H18.5605C18.8805 28.7992 19.1471 28.5726 19.1871 28.2526L19.6671 24.8659C20.4538 24.5459 21.1738 24.1192 21.8271 23.6126L25.0138 24.8926C25.3071 24.9992 25.6405 24.8926 25.8005 24.5992L28.3605 20.1726C28.5205 19.8792 28.4538 19.5459 28.2005 19.3592L25.5205 17.2526ZM16.0005 20.7992C13.3605 20.7992 11.2005 18.6392 11.2005 15.9992C11.2005 13.3592 13.3605 11.1992 16.0005 11.1992C18.6405 11.1992 20.8005 13.3592 20.8005 15.9992C20.8005 18.6392 18.6405 20.7992 16.0005 20.7992Z"/>
</svg>

<svg width="32" height="32" fill="none" xmlns="http://www.w3.org/2000/svg"><path d="M25.52 17.253c.054-.4.08-.814.08-1.254 0-.426-.026-.853-.093-1.253l2.707-2.107a.654.654 0 00.16-.813l-2.56-4.427c-.16-.293-.494-.386-.787-.293l-3.187 1.28a9.421 9.421 0 00-2.16-1.253l-.48-3.387a.645.645 0 00-.64-.547h-5.12a.632.632 0 00-.626.547l-.48 3.387c-.787.32-1.507.76-2.16 1.253l-3.187-1.28a.637.637 0 00-.787.293l-2.546 4.427c-.16.28-.107.627.16.813l2.706 2.107c-.066.4-.12.84-.12 1.253 0 .414.027.853.094 1.254l-2.707 2.106a.654.654 0 00-.16.814l2.56 4.426c.16.294.493.387.787.294l3.187-1.28a9.42 9.42 0 002.16 1.253l.48 3.387c.066.32.32.546.64.546h5.12a.62.62 0 00.626-.546l.48-3.387a9.146 9.146 0 002.16-1.253l3.187 1.28c.293.106.627 0 .787-.294l2.56-4.426c.16-.294.093-.627-.16-.814l-2.68-2.106zM16 20.799c-2.64 0-4.8-2.16-4.8-4.8 0-2.64 2.16-4.8 4.8-4.8 2.64 0 4.8 2.16 4.8 4.8 0 2.64-2.16 4.8-4.8 4.8z"/></svg>
